packages/astro-components-stencil/src/icons/accessible.svg

<svg xmlns="http://www.w3.org/2000/svg" viewBox="0 0 24 24"><g xmlns="http://www.w3.org/2000/svg" id="accessible" fill-rule="nonzero">
            <path d="M12 6a2 2 0 110-4 2 2 0 010 4zm7 5.9c0 .63-.58 1.1-1.2.97-1.4-.28-2.8-.99-3.8-1.82v3.45h3c1.1 0 2 .9 2 2V21c0 .55-.45 1-1 1s-1-.45-1-1v-4h-5c-1.1 0-2-.9-2-2V9.1c0-1.03.73-1.95 1.75-2.07.47-.06.88.04 1.25.25h.01c.01 0 .01.01.02.01.23.11.44.26.61.45l1.29 1.43c.8.88 1.98 1.55 3.23 1.76.48.08.84.48.84.97zM12.83 18h2.07A5 5 0 119 12.1v2.07c-1.16.42-2 1.52-2 2.83 0 1.66 1.34 3 3 3 1.31 0 2.42-.84 2.83-2z"/>
        </g></svg>

<svg width="24" height="24" viewBox="0 0 24 24" fill="none" xmlns="http://www.w3.org/2000/svg">
<path fill-rule="evenodd" clip-rule="evenodd" d="M12 6C10.8954 6 10 5.10457 10 4C10 2.89543 10.8954 2 12 2C13.1046 2 14 2.89543 14 4C14 5.10457 13.1046 6 12 6ZM19 11.9C19 12.53 18.42 13 17.8 12.87C16.4 12.59 15 11.88 14 11.05V14.5H17C18.1 14.5 19 15.4 19 16.5V21C19 21.55 18.55 22 18 22C17.45 22 17 21.55 17 21V17H12C10.9 17 10 16.1 10 15V9.1C10 8.07 10.73 7.15 11.75 7.03C12.22 6.97 12.63 7.07 13 7.28H13.01C13.015 7.28 13.0175 7.2825 13.02 7.285C13.0225 7.2875 13.025 7.29 13.03 7.29C13.26 7.4 13.47 7.55 13.64 7.74L14.93 9.17C15.73 10.05 16.91 10.72 18.16 10.93C18.64 11.01 19 11.41 19 11.9ZM14.9 18H12.83C12.42 19.16 11.31 20 10 20C8.34 20 7 18.66 7 17C7 15.69 7.84 14.59 9 14.17V12.1C6.72 12.56 5 14.58 5 17C5 19.76 7.24 22 10 22C12.42 22 14.44 20.28 14.9 18Z" fill="black"/>
</svg>
